X:249
T: LUSTIG SEID IHR LIEBEN BRUEDER
N: B0730E
O: Europa, Mitteleuropa, Deutschland
R: Trink - Lied
M: 4/4
L: 1/16
K: C
 | G,2G,2G,2G,2C2G,2E,2C,2 | C2B,CD2CDE8 |
G,2G,2G,2G,2C2G,2E,2C,2 | C2B,CD2CDE8 |
E2E2EDCB,A,2A,2A,4 | D2D2DEDCB,CB,A,G,2
G,2 | C2C2D2D2E4B,2B,2 | C16

@@@ Tune index: 2467
